X:30
T:Bath Carnival
M:6/8
K:G
"G"B2c dcB|"C"efg efg|edc "G"BAG|"D"FAG FED|"G"B2c dcB|"C"efg "G"efg|
"C"edc "D7"BcA|"G"G3 G3::"D"ADD "G"BDD|"D"cDD "G"BDD|"D"ADD "G"BDD|
"D"A2D DDD|ADD "G"BDD|"D"cDD "G"BDD|"D7"AcB AGF|"G"G6:|

